source/img/sprite/moon.svg

<svg width="12" height="12" viewBox="0 0 12 12" fill="none" xmlns="http://www.w3.org/2000/svg">
<g clip-path="url(#clip0_131_4236)">
<path d="M11.1961 6.75379C11.0846 6.72581 10.9731 6.75379 10.8755 6.82374C10.513 7.13153 10.0948 7.38335 9.63471 7.55123C9.20253 7.71912 8.72852 7.80306 8.22663 7.80306C7.09738 7.80306 6.06571 7.34138 5.32682 6.5999C4.58793 5.85842 4.12786 4.82314 4.12786 3.68994C4.12786 3.21427 4.21151 2.75259 4.35092 2.33289C4.50428 1.8852 4.72734 1.47949 5.02011 1.12973C5.14558 0.975839 5.1177 0.751995 4.96434 0.626083C4.86675 0.556132 4.75522 0.528152 4.64369 0.556132C3.45867 0.877907 2.42701 1.59141 1.68812 2.54274C0.977105 3.48008 0.544922 4.64127 0.544922 5.91438C0.544922 7.43931 1.15834 8.82434 2.16212 9.83164C3.1659 10.8389 4.5461 11.4545 6.06571 11.4545C7.34832 11.4545 8.53334 11.0068 9.48135 10.2653C10.4433 9.50986 11.1404 8.43262 11.4331 7.20148C11.5029 6.99163 11.3913 6.79576 11.1961 6.75379ZM9.06311 9.67774C8.25451 10.3213 7.22285 10.713 6.0936 10.713C4.76916 10.713 3.5702 10.1674 2.70584 9.30001C1.84147 8.43262 1.29776 7.22946 1.29776 5.90039C1.29776 4.79516 1.66023 3.78787 2.2876 2.97644C2.71978 2.41683 3.26349 1.95515 3.89086 1.63338C3.82115 1.78727 3.75144 1.94116 3.69568 2.10904C3.51444 2.61269 3.43079 3.14432 3.43079 3.70393C3.43079 5.033 3.9745 6.25015 4.83887 7.11754C5.70324 7.98493 6.91614 8.53055 8.24057 8.53055C8.82611 8.53055 9.38377 8.43262 9.8996 8.23675C10.0808 8.1668 10.2621 8.09685 10.4294 8.01291C10.0948 8.65646 9.63471 9.23006 9.06311 9.67774Z" fill="white"/>
</g>
<defs>
<clipPath id="clip0_131_4236">
<rect width="12" height="12" fill="white"/>
</clipPath>
</defs>
</svg>

<svg width="12" height="12" fill="none" xmlns="http://www.w3.org/2000/svg"><g clip-path="url(#a)"><path d="M11.2 6.75a.38.38 0 0 0-.32.07A4.09 4.09 0 0 1 4.13 3.7c0-.48.08-.94.22-1.36.15-.44.38-.85.67-1.2a.36.36 0 0 0-.06-.5.38.38 0 0 0-.32-.07 5.55 5.55 0 0 0 1.42 10.9 5.53 5.53 0 0 0 5.37-4.26c.07-.2-.04-.4-.23-.45ZM9.06 9.68a4.75 4.75 0 0 1-6.35-.38 4.8 4.8 0 0 1 1.18-7.67 4.84 4.84 0 0 0 6.01 6.6c.18-.06.36-.13.53-.22-.34.65-.8 1.22-1.37 1.67Z" fill="#fff"/></g><defs><clipPath id="a"><path fill="#fff" d="M0 0h12v12H0z"/></clipPath></defs></svg>
